X: 141726
T: New Road
T: B\'othar Nua
S: B.Breathnach:"Ceol Rince na hEireann" IV/113 
Z: B.Black
L: 1/8
M: 4/4
R: reel
K: G
D2 FA d2 dB|cAGE CEGE|DEFA dfed|cAGE EDCE|
D2 FA d3B|cA A2 Gc c2|ABcA dfed|cAGE ED D2 ||
defg afdB|cdef gece|defg afbf|afeg fddf|
afdf afdf|gece g2 fe|defg afbf|afeg fdde ||
f2 de fdgf|eA^ce gbag|f2 de fdge|fde^c Adde|
f2 de fdgf|eA^ce g2 fg|(3agf ge dfed|cAGE ED D2 ||
